X: 49
T: Missa octavi toni &mdash; Agnus
C: Gaspar van Weerbeke
%%abc-version 2.0
%%abcx-abcm2ps-target-version 5.9.1 (29 Sep 2008)
%%abc-creator hum2abc beta
%%abcx-conversion-date 2022/03/06 13:05:55
%%abc-copyright Copyright 2016, Kolb, Paul
%%abc-edited-by Zybina, Karina
%%humdrum-veritas 354942967
%%humdrum-veritas-data 1972096779
%%linebreak <none>
%%barnumbers 0
L: 1/4
M: 3/2
N: Derived from Gas0204e-Missa_Octavi_toni-Agnus.krn
%%staves [1 2 3 4]
V: 1 clef=treble
V: 2 clef=treble-8
V: 3 clef=treble-8
V: 4 clef=bass
K: C
[V:1] G6 | 
[V:2] z6 | 
[V:3] G6 | 
[V:4] z6 | 
[V:1] E2>F2G2 | 
[V:2] z6 | 
[V:3] c2>A2B2 | 
[V:4] z6 | 
[V:1] FA2G/F/E2 | 
[V:2] z6 | 
[V:3] A>Bcd2^c | 
[V:4] z6 | 
[V:1] D2GAcB- | 
[V:2] z6 | 
[V:3] d2BcAd- | 
[V:4] z6 | 
[V:1] B/A/G/F/EFG2 | 
[V:2] z6 | 
[V:3] dBcAG3/A/ | 
[V:4] z6 | 
[V:1] ED2B,CA, | 
[V:2] z6 | 
[V:3] cB>AG/F/EF | 
[V:4] z6 | 
[V:1] G,D2G2^F | 
[V:2] z6 | 
[V:3] G2FGA2 | 
[V:4] z6 | 
[V:1] G2z2G2 | 
[V:2] G3B2c | 
[V:3] G4z2 | 
[V:4] G,4E,2 | 
[V:1] F>GA>Bc2 | 
[V:2] d2f2e2 | 
[V:3] A6- | 
[V:4] D,4A,,2 | 
[V:1] zdcA2F | 
[V:2] d>cADA3/B/ | 
[V:3] A4cd | 
[V:4] D,2F,3D, | 
[V:1] GEFDG2 | 
[V:2] c2AA2G | 
[V:3] e2dd2^c | 
[V:4] C,2D,F,E,2 | 
[V:1] F2G2A3/G/ | 
[V:2] A2B2cd | 
[V:3] d3c/B/A2 | 
[V:4] D,2G,2F,D, | 
[V:1] FE2D2^C | 
[V:2] AGcBA2- | 
[V:3] DG2FE2 | 
[V:4] F,C,2D,A,,2 | 
[V:1] DF>GA2^G | 
[V:2] A2DEGE- | 
[V:3] zd2cB2 | 
[V:4] D,2zA,,E,2 | 
[V:1] A2z2z2 | 
[V:2] Eefed2 | 
[V:3] zA2GFD | 
[V:4] A,,2z2A,2 | 
[V:1] z6 | 
[V:2] cdz2z2 | 
[V:3] ED2GFA | 
[V:4] G,F,D,E,D,2 | 
[V:1] z6 | 
[V:2] z6 | 
[V:3] GED2zc | 
[V:4] zG,F,A,G,E, | 
[V:1] z6 | 
[V:2] z6 | 
[V:3] Bd2edB- | 
[V:4] D,2zC,B,,D,- | 
[V:1] z2z2GB | 
[V:2] z6 | 
[V:3] BGABG2 | 
[V:4] D,E,D,B,,2G,, | 
[V:1] cd2BA2 | 
[V:2] z6 | 
[V:3] ED2G2^F | 
[V:4] A,,B,,G,,2D,2 | 
[V:1] G2EFDG- | 
[V:2] G2ADG2 | 
[V:3] GBcd>cB | 
[V:4] z6 | 
[V:1] GCB,G,A,2 | 
[V:2] cedg2^f | 
[V:3] A2zd2c | 
[V:4] z6 | 
[V:1] G,2z2z2 | 
[V:2] g2d>c B/A/ d/c/ | 
[V:3] Bd>cB/A/ d/c/B/A/ | 
[V:4] z6 | 
[V:1] D>EFGAc | 
[V:2] B/A/BAG2^F | 
[V:3] GdcBA2 | 
[V:4] z6 | 
[V:1] BA2G2^F | 
[V:2] GdcBA2 | 
[V:3] GDFGD2 | 
[V:4] z6 | 
[V:1] G4 ||  
[V:2] G4 ||  
[V:3] D4 ||  
[V:4] G,,4 ||  
[V:1] [M:2/2]G4 | 
[V:2] [M:2/2]G4- | 
[V:3] [M:2/2]z4 | 
[V:4] [M:2/2]z4 | 
[V:1] B3G | 
[V:2] G2E2 | 
[V:3] z4 | 
[V:4] z4 | 
[V:1] A2B2 | 
[V:2] F2G2- | 
[V:3] z4 | 
[V:4] z4 | 
[V:1] G4 | 
[V:2] G2e2 | 
[V:3] z4 | 
[V:4] z4 | 
[V:1] A2B2 | 
[V:2] f2g2 | 
[V:3] z4 | 
[V:4] z4 | 
[V:1] c2d2- | 
[V:2] e2f2 | 
[V:3] z4 | 
[V:4] z4 | 
[V:1] dcBA | 
[V:2] d2g2- | 
[V:3] z4 | 
[V:4] z4 | 
[V:1] G4 | 
[V:2] gfed | 
[V:3] z4 | 
[V:4] z4 | 
[V:1] E2F2 | 
[V:2] c2d2- | 
[V:3] z4 | 
[V:4] z4 | 
[V:1] D4 | 
[V:2] dcBA | 
[V:3] G4 | 
[V:4] z4 | 
[V:1] z4 | 
[V:2] G4 | 
[V:3] B3G | 
[V:4] G,3E, | 
[V:1] z4 | 
[V:2] z4 | 
[V:3] A2B2 | 
[V:4] F,2G,2- | 
[V:1] z4 | 
[V:2] z4 | 
[V:3] G4 | 
[V:4] G,2E,2 | 
[V:1] z4 | 
[V:2] z4 | 
[V:3] A2B2 | 
[V:4] F,2G,2 | 
[V:1] z4 | 
[V:2] z4 | 
[V:3] c2d2- | 
[V:4] E,2F,2 | 
[V:1] z4 | 
[V:2] z4 | 
[V:3] dcBA | 
[V:4] D,2G,2- | 
[V:1] z4 | 
[V:2] z4 | 
[V:3] G4 | 
[V:4] G,F,E,D, | 
[V:1] z4 | 
[V:2] z4 | 
[V:3] E2F2 | 
[V:4] C,2D,2- | 
[V:1] z4 | 
[V:2] z4 | 
[V:3] D3E | 
[V:4] D,C,B,,2 | 
[V:1] z4 | 
[V:2] z4 | 
[V:3] FG/A/_B2 | 
[V:4] A,,2G,,2 | 
[V:1] z4 | 
[V:2] z4 | 
[V:3] A2G2- | 
[V:4] C,2B,,2 | 
[V:1] z4 | 
[V:2] z4 | 
[V:3] G2^F2 | 
[V:4] A,,4 | 
[V:1] D3E | 
[V:2] z4 | 
[V:3] G4 | 
[V:4] G,,4 | 
[V:1] FG/A/_B2 | 
[V:2] d4 | 
[V:3] z4 | 
[V:4] z2G,2 | 
[V:1] A2G2- | 
[V:2] c2B2 | 
[V:3] z4 | 
[V:4] A,F,G,2 | 
[V:1] G2^F2 | 
[V:2] A4 | 
[V:3] z4 | 
[V:4] D,4 | 
[V:1] G4 | 
[V:2] G4 | 
[V:3] d4 | 
[V:4] G,,4 | 
[V:1] z4 | 
[V:2] D2F2- | 
[V:3] d3c | 
[V:4] z4 | 
[V:1] z4 | 
[V:2] FGAB | 
[V:3] ABc2 | 
[V:4] z4 | 
[V:1] z4 | 
[V:2] c2d2 | 
[V:3] F4 | 
[V:4] z4 | 
[V:1] z4 | 
[V:2] e2df- | 
[V:3] E2FD | 
[V:4] z4 | 
[V:1] z4 | 
[V:2] fd2^c | 
[V:3] FGE2 | 
[V:4] z4 | 
[V:1] z4 | 
[V:2] d4 | 
[V:3] D4 | 
[V:4] z4 | 
[V:1] z4 | 
[V:2] B2d2 | 
[V:3] d2B3/c/ | 
[V:4] z4 | 
[V:1] z4 | 
[V:2] G2zd | 
[V:3] d2GA/B/ | 
[V:4] z4 | 
[V:1] z4 | 
[V:2] efgd- | 
[V:3] cB/A/G2 | 
[V:4] z4 | 
[V:1] z4 | 
[V:2] dBc3/A/ | 
[V:3] zDE3/F/ | 
[V:4] z4 | 
[V:1] z4 | 
[V:2] G2z2 | 
[V:3] G>A B/A/c- | 
[V:4] G,,2D,E, | 
[V:1] z4 | 
[V:2] z4 | 
[V:3] c/B/A/G/BA- | 
[V:4] F,2G,D,- | 
[V:1] z4 | 
[V:2] z4 | 
[V:3] AG2^F | 
[V:4] D,B,,A,,2 | 
[V:1] D2E3/F/ | 
[V:2] z4 | 
[V:3] G4 | 
[V:4] G,,2z2 | 
[V:1] G>A B/G/c- | 
[V:2] z4 | 
[V:3] B>cde- | 
[V:4] G,2D,C,- | 
[V:1] c/B/A/G/BA- | 
[V:2] z4 | 
[V:3] ecd2- | 
[V:4] C,F,D,F,- | 
[V:1] AG2^F | 
[V:2] z4 | 
[V:3] dBA2 | 
[V:4] F,G,D,2 | 
[V:1] G4 | 
[V:2] z4 | 
[V:3] G2zG | 
[V:4] G,,>A,,B,,C,- | 
[V:1] z4 | 
[V:2] z4 | 
[V:3] A2c2 | 
[V:4] C,/B,,/A,,/G,,/A,,2 | 
[V:1] z2zG | 
[V:2] z4 | 
[V:3] B>GBc- | 
[V:4] G,,G,2E, | 
[V:1] A2c2 | 
[V:2] z4 | 
[V:3] c/B/A/G/A2 | 
[V:4] F,2F,2 | 
[V:1] B>GBc- | 
[V:2] z4 | 
[V:3] G2z2 | 
[V:4] G,3A,- | 
[V:1] c/B/A/G/A2 | 
[V:2] z4 | 
[V:3] z2c2 | 
[V:4] A,/G,/^F,/E,/F,2 | 
[V:1] G2z2 | 
[V:2] z4 | 
[V:3] BGBc | 
[V:4] G,4 | 
[V:1] c2BG | 
[V:2] z4 | 
[V:3] A2G2 | 
[V:4] z4 | 
[V:1] BcA2 | 
[V:2] z4 | 
[V:3] z2d2 | 
[V:4] z4 | 
[V:1] GF2D | 
[V:2] z4 | 
[V:3] ed2B | 
[V:4] z4 | 
[V:1] EFD2 | 
[V:2] z4 | 
[V:3] cd2D | 
[V:4] z4 | 
[V:1] zA2G/F/ | 
[V:2] z4 | 
[V:3] EFDA- | 
[V:4] z4 | 
[V:1] E>FG3/F/ | 
[V:2] z4 | 
[V:3] AG/F<EF/ | 
[V:4] z4 | 
[V:1] D2z2 | 
[V:2] z4 | 
[V:3] G>FD2 | 
[V:4] z4 | 
[V:1] z4 | 
[V:2] z4 | 
[V:3] zDG3/A/ | 
[V:4] A,>G,E,3/F,/ | 
[V:1] G>ABc | 
[V:2] z4 | 
[V:3] B/c<dc/A | 
[V:4] G,>F,D,C, | 
[V:1] Bd>cA | 
[V:2] z4 | 
[V:3] BG2^F | 
[V:4] D,B,,A,,2 | 
[V:1] BG2^F | 
[V:2] z4 | 
[V:3] G>BA2 | 
[V:4] G,,2D,2 | 
[V:1] G4 ||  
[V:2] z4 ||  
[V:3] G4 ||  
[V:4] G,,4 ||  
[V:1] [M:3/2]z6 | 
[V:2] [M:3/2]G6 | 
[V:3] [M:3/2]z6 | 
[V:4] [M:3/2]G,,6 | 
[V:1] z6 | 
[V:2] E2F4 | 
[V:3] z6 | 
[V:4] A,,6 | 
[V:1] G4G2 | 
[V:2] G2d4 | 
[V:3] G6 | 
[V:4] G,,4B,,2 | 
[V:1] E2F4 | 
[V:2] e2d4 | 
[V:3] A6 | 
[V:4] C,2D,4 | 
[V:1] G4G2- | 
[V:2] B4G2- | 
[V:3] G4B2 | 
[V:4] E,6- | 
[V:1] G2B4 | 
[V:2] G2F4 | 
[V:3] c2d4 | 
[V:4] E,2D,4 | 
[V:1] c2>B2AG | 
[V:2] G2c3B | 
[V:3] e6 | 
[V:4] C,6 | 
[V:1] F2A3G | 
[V:2] A4A2 | 
[V:3] d4c2 | 
[V:4] D,2F,4 | 
[V:1] G4^F2 | 
[V:2] B2d4 | 
[V:3] B2A4 | 
[V:4] G,2D,4 | 
[V:1] G6 | 
[V:2] z6 | 
[V:3] G4z2 | 
[V:4] G,,6 | 
[V:1] z2z2G2 | 
[V:2] d4e2 | 
[V:3] G4E2 | 
[V:4] z6 | 
[V:1] A4G2 | 
[V:2] f4e2 | 
[V:3] D2F2C2 | 
[V:4] z6 | 
[V:1] F2E4 | 
[V:2] d4^c2 | 
[V:3] D2A4 | 
[V:4] z6 | 
[V:1] D2F3E | 
[V:2] d2A4 | 
[V:3] z6 | 
[V:4] D,4C,2 | 
[V:1] D4^C2 | 
[V:2] F2E4 | 
[V:3] z6 | 
[V:4] D,2A,,4 | 
[V:1] D4B,2 | 
[V:2] D4D2 | 
[V:3] z6 | 
[V:4] z6 | 
[V:1] C2A,4 | 
[V:2] E2F3G | 
[V:3] z6 | 
[V:4] z6 | 
[V:1] z6 | 
[V:2] A2d2B2 | 
[V:3] D4D2 | 
[V:4] z6 | 
[V:1] z6 | 
[V:2] c2A4 | 
[V:3] E2F3G | 
[V:4] z6 | 
[V:1] z6 | 
[V:2] z6 | 
[V:3] A2d2B2 | 
[V:4] D,4D,2 | 
[V:1] z6 | 
[V:2] z6 | 
[V:3] c2A4 | 
[V:4] E,2F,4 | 
[V:1] D4D2 | 
[V:2] z6 | 
[V:3] G2B3A | 
[V:4] G,2D,2B,,2 | 
[V:1] E2F2A2 | 
[V:2] z6 | 
[V:3] G4^F2 | 
[V:4] C,2A,,4 | 
[V:1] B4G2 | 
[V:2] d2>c2BA | 
[V:3] G6 | 
[V:4] G,,6 | 
[V:1] z6 | 
[V:2] B2G2d2 | 
[V:3] d4B2 | 
[V:4] z6 | 
[V:1] z6 | 
[V:2] e4d2 | 
[V:3] c2>B2A2 | 
[V:4] z2z2D,2 | 
[V:1] z2z2G2 | 
[V:2] B4z2 | 
[V:3] G4z2 | 
[V:4] E,4C,2 | 
[V:1] d4B2 | 
[V:2] z6 | 
[V:3] z2z2d2 | 
[V:4] B,,4G,,2 | 
[V:1] c2>B2A2 | 
[V:2] z6 | 
[V:3] e2>d2c2 | 
[V:4] z6 | 
[V:1] G2B2A2 | 
[V:2] d2>e2f2 | 
[V:3] B2d3c | 
[V:4] G,4F,2 | 
[V:1] G4^F2 | 
[V:2] d6 | 
[V:3] B2A4 | 
[V:4] G,2D,4 | 
[V:1] G4z2 | 
[V:2] B4z2 | 
[V:3] G4z2 | 
[V:4] G,,4A,,2 | 
[V:1] z6 | 
[V:2] G4A2 | 
[V:3] z6 | 
[V:4] B,,4C,2 | 
[V:1] z6 | 
[V:2] B4c2 | 
[V:3] z6 | 
[V:4] B,,2G,,2A,,2 | 
[V:1] z6 | 
[V:2] B2G2A2 | 
[V:3] z6 | 
[V:4] B,,4C,2 | 
[V:1] z6 | 
[V:2] G4^F2 | 
[V:3] G4A2 | 
[V:4] B,,2A,,4 | 
[V:1] G4A2 | 
[V:2] G4z2 | 
[V:3] B4c2 | 
[V:4] G,,4z2 | 
[V:1] B4c2 | 
[V:2] d2>c2A2 | 
[V:3] B2>G2A2 | 
[V:4] z6 | 
[V:1] B2>G2A2 | 
[V:2] D4E2 | 
[V:3] B4z2 | 
[V:4] B,,4C,2 | 
[V:1] B4z2 | 
[V:2] D3G2^F | 
[V:3] z2z2c2 | 
[V:4] B,,2>G,,2A,,2 | 
[V:1] z2z2c2 | 
[V:2] G2zg2^f | 
[V:3] B2>G2A2 | 
[V:4] G,,4z2 | 
[V:1] B2>G2A2 | 
[V:2] g4f2 | 
[V:3] G4z2 | 
[V:4] G,,4D,2 | 
[V:1] G4z2 | 
[V:2] e2>d2c2 | 
[V:3] G4A2 | 
[V:4] E,4F,2 | 
[V:1] G4A2 | 
[V:2] Bd2cA2 | 
[V:3] B4c2 | 
[V:4] G,4F,2 | 
[V:1] B4c2 | 
[V:2] Gd2ef2 | 
[V:3] B2>G2A2 | 
[V:4] G,4z2 | 
[V:1] B2A3G | 
[V:2] g2f4 | 
[V:3] G2d4 | 
[V:4] G,2D,2F,2 | 
[V:1] G4^F2 | 
[V:2] d4d2 | 
[V:3] B2A4 | 
[V:4] G,2D,4 | 
[V:1] G6- | 
[V:2] B2>c2d2 | 
[V:3] G6- | 
[V:4] G,,2>A,,2B,,2 | 
[V:1] G6- | 
[V:2] e4d2 | 
[V:3] G6- | 
[V:4] C,4B,,2 | 
[V:1] G4 |]  
[V:2] d4 |]  
[V:3] G4 |]  
[V:4] G,,4 |]  


